img/svg/big-letter.svg

<svg width="448" height="438" viewBox="0 0 448 438" fill="none" xmlns="http://www.w3.org/2000/svg">
<path opacity="0.55" d="M0 95.4015L91.6331 437.381L447.677 341.979L356.043 -5.6949e-05L0 95.4015ZM383.821 306.674L304.033 328.052L278.355 232.221L248.531 311.589L183.6 257.232L209.373 353.417L129.247 374.886L63.8221 130.716L143.609 109.337L208.933 162.453L237.931 84.064L318.395 62.5035L383.821 306.674Z" fill="#F9F7F1"/>
</svg>

<svg width="448" height="438" viewBox="0 0 448 438" fill="none" xmlns="http://www.w3.org/2000/svg"><path opacity=".55" d="M0 95.401l91.633 341.98 356.044-95.402L356.043-.001 0 95.403zm383.821 211.273l-79.788 21.378-25.678-95.831-29.824 79.368-64.931-54.357 25.773 96.185-80.126 21.469-65.425-244.17 79.787-21.379 65.324 53.116 28.998-78.389 80.464-21.56 65.426 244.17z" fill="#F9F7F1"/></svg>
